overrides/.icons/class/phb24-fighter.svg

<?xml version="1.0" encoding="UTF-8" standalone="no"?>
<svg
   version="1.0"
   viewBox="0 0 24 24"
   preserveAspectRatio="xMidYMid"
   id="svg1"
   sodipodi:docname="phb24-fighter.svg"
   xml:space="preserve"
   inkscape:version="1.3.2 (091e20e, 2023-11-25, custom)"
   xmlns:inkscape="http://www.inkscape.org/namespaces/inkscape"
   xmlns:sodipodi="http://sodipodi.sourceforge.net/DTD/sodipodi-0.dtd"
   xmlns="http://www.w3.org/2000/svg"
   xmlns:svg="http://www.w3.org/2000/svg"><defs
     id="defs1" /><sodipodi:namedview
     id="namedview1"
     pagecolor="#ffffff"
     bordercolor="#111111"
     borderopacity="1"
     inkscape:showpageshadow="0"
     inkscape:pageopacity="0"
     inkscape:pagecheckerboard="1"
     inkscape:deskcolor="#d1d1d1"
     inkscape:document-units="px"
     inkscape:zoom="20.76"
     inkscape:cx="11.536609"
     inkscape:cy="9.0799613"
     inkscape:window-width="1366"
     inkscape:window-height="697"
     inkscape:window-x="-8"
     inkscape:window-y="-8"
     inkscape:window-maximized="1"
     inkscape:current-layer="svg1" /><g
     transform="matrix(0.1,0,0,-0.1,-1.1250049,298.88843)"
     fill="#000000"
     stroke="none"
     id="g1" /><path
     style="stroke:none;stroke-width:1"
     d="m 2.1755327,12.582468 h 0.051348 C 2.1481311,12.155724 2.0634484,11.731749 2.0215035,11.301052 1.9942385,11.021126 2.0462401,10.754186 2.0728511,10.480945 2.2093841,9.0789863 2.7012507,7.7018819 3.6645179,6.6366952 4.25768,5.9807722 4.9313797,5.5115104 5.6669388,5.0477381 l 0.094134,1.5889571 0.2139333,0.6663369 C 6.079809,7.0937843 6.1117987,6.8566872 6.1974976,6.6366952 6.3836983,6.1587085 6.6133121,5.6715923 6.9163149,5.2527653 8.0670369,3.66217 9.7457267,2.7745879 11.674203,2.587418 12.309964,2.5257111 12.904086,2.7436983 13.522591,2.7924452 13.354358,2.5557945 13.010215,2.4000094 12.75243,2.2713356 12.215234,2.0031951 11.696224,1.7591799 11.109418,1.5964551 8.4232465,0.85156449 5.6684109,1.606522 3.6131771,3.458782 1.8197775,5.0750668 1.1275643,7.6429327 1.3540357,9.9683781 1.4462857,10.915593 1.855263,11.714622 2.1755415,12.582468 M 15.165594,2.7924452 C 14.414483,3.1673619 13.584454,3.4353271 12.803765,3.7492364 12.47686,3.8806817 12.119807,3.9953623 11.828226,4.1934596 10.739303,4.9332709 9.9059177,5.9841977 9.0898747,6.9954922 8.4259095,7.8183196 7.7442866,8.6275418 7.0874534,9.4558121 7.0137989,9.5486944 6.9066526,9.7399193 6.7965032,9.78898 6.6621636,9.8488161 6.5252157,9.6943728 6.3857502,9.729183 6.2096795,9.7731244 6.0578076,9.9793596 5.9749974,10.12215 H 5.9236497 C 5.7193524,9.7791461 5.2624686,9.5979384 5.0508001,9.2507869 4.9510216,9.087146 5.0017368,8.7652894 4.8368659,8.6613355 4.7328566,8.5957595 4.5425189,8.6369821 4.4346702,8.6699114 4.0985774,8.7724308 3.678417,9.207974 3.7757539,9.6096171 c 0.04838,0.1996273 0.460282,0.1510081 0.6075716,0.2306543 0.1193882,0.064562 0.2132919,0.1873006 0.3080655,0.2819116 0.2624635,0.262016 0.782056,0.663168 0.7188173,1.076391 -0.049093,0.320815 -0.5118268,0.478157 -0.7017028,0.717593 -0.2552437,0.321864 -0.3289041,0.697543 -0.5476705,1.025133 -0.1655494,0.247901 -0.4541797,0.376735 -0.6332444,0.615081 -0.099947,0.133035 -0.1049728,0.348987 -0.2310489,0.452767 -0.1919679,0.15802 -0.4997883,-0.1674 -0.6931454,0.02562 -0.085924,0.08578 -0.06846,0.232167 -0.06846,0.341712 0,0.313162 0.015102,0.625337 0.265278,0.854277 0.2327747,0.213013 0.5172777,0.222112 0.8129485,0.222112 0.1097307,0 0.2563663,0.01743 0.3422936,-0.06834 0.1845801,-0.184263 -0.097983,-0.452231 -0.00859,-0.64925 0.073048,-0.160939 0.3541162,-0.180713 0.4877695,-0.27337 0.2462364,-0.170705 0.3667013,-0.466163 0.6161299,-0.632164 0.3285947,-0.218691 0.7054571,-0.289134 1.0268817,-0.546739 0.2319538,-0.185899 0.372499,-0.601986 0.6674736,-0.691965 0.4225156,-0.128881 0.8701919,0.450115 1.1295707,0.709051 0.094769,0.09461 0.2177249,0.188356 0.2823926,0.30754 0.079784,0.147039 0.031082,0.558241 0.2310492,0.606538 0.4023284,0.09717 0.8386137,-0.322275 0.9413079,-0.657794 0.032956,-0.107665 0.074249,-0.297681 0.00859,-0.401512 C 9.233899,12.990277 8.9114953,13.04091 8.7475733,12.941301 8.3998306,12.729992 8.2183127,12.273887 7.8747233,12.069939 v -0.05126 L 8.268362,11.608625 8.285475,11.113144 9.9284866,9.7975558 12.187627,7.9694018 11.417465,5.7653654 13.11182,6.9442681 h 0.05135 C 14.010744,6.0981347 14.334716,5.003821 14.771949,3.9201248 l 0.308066,-0.7688495 c 0.05019,-0.1244072 0.131422,-0.2469143 0.08557,-0.3587969 m 0.102689,1.7427269 0.154032,2.2040366 -0.376525,1.6914696 -0.54767,1.2301599 -0.521998,-1.1276464 -1.018325,-1.2301597 -0.718817,-0.5125671 0.410753,1.9990102 0.05135,0.512566 -0.205374,1.2814176 -0.753048,-0.9738768 -0.5819,-0.512567 c 0.752472,2.5950278 -0.683006,5.6396928 -3.3887113,6.3899978 -0.9473549,0.262707 -1.8154269,0.244361 -2.7725823,0.06834 v 0.05126 c 0.7131554,0.262295 1.3473311,0.665156 2.1051087,0.854276 1.9798575,0.494121 4.1585809,0.169606 5.9045739,-0.871362 2.859773,-1.705013 4.173848,-5.098333 3.508513,-8.2864948 C 16.372186,6.606016 16.10481,5.9833069 15.790278,5.3553159 15.652388,5.0800038 15.505604,4.7356784 15.268281,4.5352092 Z"
     id="path1" /></svg>

<?xml version="1.0" encoding="UTF-8"?>
<svg id="svg1" preserveAspectRatio="xMidYMid" version="1.0" viewBox="0 0 24 24" xml:space="preserve" xmlns="http://www.w3.org/2000/svg"><path id="path1" d="m2.1755 12.582h0.051348c-0.07875-0.42674-0.16343-0.85072-0.20538-1.2814-0.027265-0.27993 0.024737-0.54687 0.051348-0.82011 0.13653-1.402 0.6284-2.7791 1.5917-3.8442 0.59316-0.65592 1.2669-1.1252 2.0024-1.589l0.094134 1.589 0.21393 0.66634c0.1048-0.20925 0.13679-0.44634 0.22249-0.66634 0.1862-0.47799 0.41581-0.9651 0.71882-1.3839 1.1507-1.5906 2.8294-2.4782 4.7579-2.6653 0.63576-0.061707 1.2299 0.15628 1.8484 0.20503-0.16823-0.23665-0.51238-0.39244-0.77016-0.52111-0.5372-0.26814-1.0562-0.51216-1.643-0.67488-2.6862-0.74489-5.441 0.010067-7.4962 1.8623-1.7934 1.6163-2.4856 4.1842-2.2591 6.5096 0.09225 0.94721 0.50123 1.7462 0.82151 2.6141m12.99-9.79c-0.75111 0.37492-1.5811 0.64288-2.3618 0.95679-0.3269 0.13145-0.68396 0.24613-0.97554 0.44422-1.0889 0.73981-1.9223 1.7907-2.7384 2.802-0.66397 0.82283-1.3456 1.632-2.0024 2.4603-0.073654 0.092882-0.1808 0.28411-0.29095 0.33317-0.13434 0.059836-0.27129-0.094607-0.41075-0.059797-0.17607 0.043941-0.32794 0.25018-0.41075 0.39297h-0.051348c-0.2043-0.343-0.66118-0.52421-0.87285-0.87136-0.099778-0.16364-0.049063-0.4855-0.21393-0.58945-0.10401-0.065576-0.29435-0.024353-0.4022 0.0085759-0.33609 0.10252-0.75625 0.53806-0.65892 0.93971 0.04838 0.19963 0.46028 0.15101 0.60757 0.23065 0.11939 0.064562 0.21329 0.1873 0.30807 0.28191 0.26246 0.26202 0.78206 0.66317 0.71882 1.0764-0.049093 0.32082-0.51183 0.47816-0.7017 0.71759-0.25524 0.32186-0.3289 0.69754-0.54767 1.0251-0.16555 0.2479-0.45418 0.37674-0.63324 0.61508-0.099947 0.13304-0.10497 0.34899-0.23105 0.45277-0.19197 0.15802-0.49979-0.1674-0.69315 0.02562-0.085924 0.08578-0.06846 0.23217-0.06846 0.34171 0 0.31316 0.015102 0.62534 0.26528 0.85428 0.23277 0.21301 0.51728 0.22211 0.81295 0.22211 0.10973 0 0.25637 0.01743 0.34229-0.06834 0.18458-0.18426-0.097983-0.45223-0.00859-0.64925 0.073048-0.16094 0.35412-0.18071 0.48777-0.27337 0.24624-0.1707 0.3667-0.46616 0.61613-0.63216 0.32859-0.21869 0.70546-0.28913 1.0269-0.54674 0.23195-0.1859 0.3725-0.60199 0.66747-0.69196 0.42252-0.12888 0.87019 0.45012 1.1296 0.70905 0.094769 0.09461 0.21772 0.18836 0.28239 0.30754 0.079784 0.14704 0.031082 0.55824 0.23105 0.60654 0.40233 0.09717 0.83861-0.32228 0.94131-0.65779 0.032956-0.10766 0.074249-0.29768 0.00859-0.40151-0.10413-0.16459-0.42654-0.11395-0.59046-0.21356-0.34774-0.21131-0.52926-0.66741-0.87285-0.87136v-0.05126l0.39364-0.41005 0.017113-0.49548 1.643-1.3156 2.2591-1.8282-0.77016-2.204 1.6944 1.1789h0.05135c0.84757-0.84613 1.1715-1.9404 1.6088-3.0241l0.30807-0.76885c0.05019-0.12441 0.13142-0.24691 0.08557-0.3588m0.10269 1.7427 0.15403 2.204-0.37652 1.6915-0.54767 1.2302-0.522-1.1276-1.0183-1.2302-0.71882-0.51257 0.41075 1.999 0.05135 0.51257-0.20537 1.2814-0.75305-0.97388-0.5819-0.51257c0.75247 2.595-0.68301 5.6397-3.3887 6.39-0.94735 0.26271-1.8154 0.24436-2.7726 0.06834v0.05126c0.71316 0.2623 1.3473 0.66516 2.1051 0.85428 1.9799 0.49412 4.1586 0.16961 5.9046-0.87136 2.8598-1.705 4.1738-5.0983 3.5085-8.2865-0.14547-0.69705-0.41284-1.3198-0.72738-1.9477-0.13789-0.27531-0.28467-0.61964-0.522-0.82011z"/></svg>
